Numix-GalliumOS/22/status/radiotray_connecting.svg

<?xml version="1.0" encoding="UTF-8" standalone="no"?>
<svg
   xmlns:dc="http://purl.org/dc/elements/1.1/"
   xmlns:cc="http://creativecommons.org/ns#"
   xmlns:rdf="http://www.w3.org/1999/02/22-rdf-syntax-ns#"
   xmlns:svg="http://www.w3.org/2000/svg"
   xmlns="http://www.w3.org/2000/svg"
   xmlns:sodipodi="http://sodipodi.sourceforge.net/DTD/sodipodi-0.dtd"
   xmlns:inkscape="http://www.inkscape.org/namespaces/inkscape"
   width="22"
   viewBox="0 0 6.208889 6.208889"
   height="22"
   id="svg2"
   version="1.1"
   inkscape:version="0.91 r"
   sodipodi:docname="radiotray_connecting.svg">
  <metadata
     id="metadata12">
    <rdf:RDF>
      <cc:Work
         rdf:about="">
        <dc:format>image/svg+xml</dc:format>
        <dc:type
           rdf:resource="http://purl.org/dc/dcmitype/StillImage" />
        <dc:title />
      </cc:Work>
    </rdf:RDF>
  </metadata>
  <sodipodi:namedview
     pagecolor="#ffffff"
     bordercolor="#666666"
     borderopacity="1"
     objecttolerance="10"
     gridtolerance="10"
     guidetolerance="10"
     inkscape:pageopacity="0"
     inkscape:pageshadow="2"
     inkscape:window-width="1366"
     inkscape:window-height="747"
     id="namedview10"
     showgrid="true"
     inkscape:zoom="21.04"
     inkscape:cx="3.0132009"
     inkscape:cy="10.509419"
     inkscape:window-x="0"
     inkscape:window-y="21"
     inkscape:window-maximized="1"
     inkscape:current-layer="svg2">
    <inkscape:grid
       type="xygrid"
       id="grid3815" />
  </sodipodi:namedview>
  <defs
     id="defs4" />
  <g
     id="g4179"
     transform="matrix(0.28222222,0,0,0.28222222,-15.203921,-3.8924651)" />
  <path
     id="path4203"
     d="M 2.2066942,1.5564838 C 1.7117892,2.0213236 1.7096506,2.7803747 2.2045542,3.2450442 L 2.439799,3.0219142 C 2.0728542,2.6775884 2.0742799,2.1235986 2.441939,1.7767159 m 1.3248556,-0.00273 c 0.3676591,0.345519 0.3703322,0.9035997 0.00214,1.2498005 L 4.004178,3.2455556 C 4.499083,2.7802043 4.4971226,2.0184259 4.0027522,1.5522223 M 3.7667946,1.7739886"
     inkscape:connector-curvature="0"
     style="fill:#ececec;fill-opacity:1;fill-rule:nonzero;stroke:none;opacity:0.4" />
  <path
     id="path4205"
     d="M 1.5086796,0.85011607 C 0.62805434,1.7043557 0.62527525,3.0939394 1.5046846,3.9471443 L 1.9232856,3.5409795 C 1.270546,2.9069829 1.2733252,1.8911397 1.9267596,1.2564534 m 2.3551082,-0.00345 c 0.6527398,0.6333062 0.6581242,1.6572555 0.00399,2.2919419 L 4.7044597,3.9511111 C 5.5843944,3.0968715 5.5798784,1.7003888 4.7004688,0.84666669 L 4.2818678,1.2535214 m 0,-6.899e-4"
     inkscape:connector-curvature="0"
     style="fill:#ececec;fill-opacity:1;fill-rule:nonzero;stroke:none;opacity:0.4" />
  <path
     style="opacity:1;fill:#ececec;fill-opacity:1;fill-rule:nonzero;stroke:none;stroke-width:2;stroke-linecap:square;stroke-linejoin:miter;stroke-miterlimit:4;stroke-dasharray:none;stroke-dashoffset:0;stroke-opacity:1"
     d="m 3.1044445,2.2577777 c 0.1563511,0 0.2822222,0.1258711 0.2822222,0.2822223 l 0,2.54 c 0,0.1563511 -0.1258711,0.2822222 -0.2822222,0.2822222 -0.1563511,0 -0.2822222,-0.1258711 -0.2822222,-0.2822222 l 0,-2.54 c 0,-0.1563512 0.1258711,-0.2822223 0.2822222,-0.2822223 z"
     id="rect4286"
     inkscape:connector-curvature="0" />
</svg>

<svg xmlns="http://www.w3.org/2000/svg" width="22" viewBox="0 0 6.208889 6.208889" height="22">
 <path d="m 2.207 1.556 c -0.495 0.465 -0.497 1.224 -0.002 1.689 l 0.235 -0.223 c -0.367 -0.344 -0.366 -0.898 0.002 -1.245 m 1.325 -0.003 c 0.368 0.346 0.37 0.904 0.002 1.25 l 0.235 0.222 c 0.495 -0.465 0.493 -1.227 -0.001 -1.693 m -0.236 0.222" style="fill:#ececec;opacity:0.4;fill-opacity:1;stroke:none;fill-rule:nonzero"/>
 <path d="m 1.509 0.85 c -0.881 0.854 -0.883 2.244 -0.004 3.097 l 0.419 -0.406 c -0.653 -0.634 -0.65 -1.65 0.003 -2.285 m 2.355 -0.003 c 0.653 0.633 0.658 1.657 0.004 2.292 l 0.419 0.406 c 0.88 -0.854 0.875 -2.251 -0.004 -3.104 l -0.419 0.407 m 0 -0.001" style="fill:#ececec;opacity:0.4;fill-opacity:1;stroke:none;fill-rule:nonzero"/>
 <path d="m 3.104 2.258 c 0.156 0 0.282 0.126 0.282 0.282 l 0 2.54 c 0 0.156 -0.126 0.282 -0.282 0.282 -0.156 0 -0.282 -0.126 -0.282 -0.282 l 0 -2.54 c 0 -0.156 0.126 -0.282 0.282 -0.282 z" style="fill:#ececec;opacity:1;fill-opacity:1;stroke:none;fill-rule:nonzero"/>
</svg>
